X:1
T:Fisk, 77.77
T:Calvin Sears Harrington (1826-1886)
T:Fisk, 77.77
T:Public Domain
C:Calvin Sears Harrington (1826-1886)
Z:Public Domain
%%score ( 1 2 ) ( 3 4 )
L:1/8
M:3/4
K:F
V:1 treble 
V:2 treble 
V:3 bass 
V:4 bass 
V:1
 (c2 d2) [Fc]2 | (A2 B2) [FA]2 | ([EG]2 [DF]2) [EG]2 | [FA]6 | (c2 d2) [Fc]2 | (A2 B2) [FA]2 | %6
 (G2 D2) [CE]2 | [CF]6 | (G2 c2) [GB]2 | ([FA]2 [Af]2) [Ge]2 | ([Fd]2 [Ec]2) [F=B]2 | [Ec]6 | %12
 (c2 d2) [Fc]2 | (A2 B2) [FA]2 | (G2 D2) [CE]2 | [CF]6 |] %16
V:2
 F4 x2 | F4 x2 | x6 | x6 | F4 x2 | F4 x2 | D4 x2 | x6 | E4 x2 | x6 | x6 | x6 | F4 x2 | F4 x2 | %14
 D4 x2 | x6 |] %16
V:3
 (A,2 B,2) [F,A,]2 | (C2 D2) [F,C]2 | [C,C]4 [C,C]2 | [F,C]6 | (A,2 B,2) [F,A,]2 | (C2 D2) [F,C]2 | %6
 [B,,B,]4 [C,B,]2 | [F,A,]6 | [E,G,]4 [E,C]2 | ([F,C]2 [D,D]2) [E,^C]2 | ([F,D]2 [G,E]2) [G,D]2 | %11
 (C4 B,2) | (A,2 B,2) [F,A,]2 | (C2 D2) [F,C]2 | [B,,B,]4 [C,B,]2 | [F,A,]6 |] %16
V:4
 F,4 x2 | F,4 x2 | x6 | x6 | F,4 x2 | F,4 x2 | x6 | x6 | x6 | x6 | x6 | C,6 | F,4 x2 | F,4 x2 | %14
 x6 | x6 |] %16

